src/assets/img/walmart.svg

<svg width="501" height="120" viewBox="0 0 501 120" fill="none" xmlns="http://www.w3.org/2000/svg">
<path d="M290.273 63.8583C290.273 52.0076 285.2 41.5371 268.044 41.5371C259.242 41.5371 252.249 44.0459 248.458 46.2418L251.237 55.7493C254.727 53.5595 260.297 51.7561 265.553 51.7561C274.239 51.7439 275.662 56.6571 275.662 59.816V60.5767C256.702 60.546 244.717 67.097 244.717 80.4381C244.717 88.59 250.802 96.2328 261.438 96.2328C267.927 96.2328 273.411 93.6137 276.686 89.4795H277.005C277.005 89.4795 279.165 98.5146 291.107 95.0613C290.5 91.2767 290.273 87.2897 290.273 82.4439V63.8583ZM276.129 76.3714C276.129 77.3282 276.049 78.3219 275.767 79.1745C274.674 82.8242 270.909 85.8789 266.222 85.8789C262.266 85.8789 259.162 83.64 259.162 78.9476C259.162 71.771 267.087 69.7959 276.129 69.8449" fill="#0071CE"/>
<path d="M0 25.4131C0 25.4131 12.3842 76.0789 14.3532 84.286C16.6718 93.8794 20.8244 97.4247 32.8101 95.0632L40.551 63.6455C42.5077 55.8616 43.8386 50.2798 45.1023 42.3487H45.3169C46.194 50.3595 47.4578 55.8616 49.0586 63.67C49.0586 63.67 52.2175 77.9436 53.8554 85.4207C55.4501 92.8979 59.94 97.6149 71.6988 95.0632L90.1249 25.4131H75.2502L68.9263 55.5427C67.2517 64.2712 65.7304 71.1472 64.5466 79.1458H64.3319C63.2647 71.2331 61.9091 64.6392 60.1671 56.0886L53.6161 25.4131H38.0975L31.1048 55.3034C29.1112 64.4306 27.2466 71.7484 26.0749 79.4954H25.8726C24.6643 72.2268 23.0265 62.9708 21.2905 54.1871C21.2905 54.1871 17.1379 32.786 15.672 25.4131" fill="#0071CE"/>
<path d="M131.578 63.8583C131.578 52.0076 126.493 41.5371 109.337 41.5371C100.559 41.5371 93.5543 44.0459 89.7637 46.2418L92.5422 55.7493C96.0202 53.5595 101.584 51.7561 106.859 51.7561C115.544 51.7439 116.967 56.6571 116.967 59.816V60.5767C98.0076 60.546 86.0098 67.097 86.0098 80.4381C86.0098 88.59 92.1191 96.2328 102.706 96.2328C109.257 96.2328 114.692 93.6137 117.967 89.4795H118.298C118.298 89.4795 120.47 98.5146 132.4 95.0613C131.787 91.2767 131.578 87.2897 131.578 82.4439V63.8583ZM117.421 76.3714C117.421 77.3282 117.342 78.3219 117.072 79.1745C115.967 82.8242 112.201 85.8789 107.503 85.8789C103.571 85.8789 100.455 83.64 100.455 78.9476C100.455 71.771 108.38 69.7959 117.421 69.8449" fill="#0071CE"/>
<path d="M139.297 25.4131V95.0387H153.454V80.2744V25.4131H139.297Z" fill="#0071CE"/>
<path d="M333.723 25.4131V76.7843C333.723 83.875 335.054 88.8189 337.918 91.8491C340.433 94.505 344.549 96.2348 349.45 96.2348C353.658 96.2348 357.773 95.4251 359.718 94.7197L359.546 83.6603C358.092 83.9977 356.43 84.286 354.148 84.286C349.315 84.286 347.72 81.2252 347.72 74.8582V55.193H360.049V41.8887H347.72V25.4131" fill="#0071CE"/>
<path d="M297.131 42.7455V95.0613H311.766V68.2686C311.766 66.8271 311.858 65.5819 312.085 64.4288C313.177 58.7794 317.464 55.2034 323.641 55.2034C325.365 55.2034 326.536 55.3936 327.837 55.596V41.8806C326.745 41.6844 326.003 41.5801 324.66 41.5801C319.182 41.5801 312.974 45.058 310.355 52.6333H309.993V42.7455" fill="#0071CE"/>
<path d="M161.674 42.7455V95.0613H175.935V64.3551C175.935 62.9137 176.094 61.4416 176.603 60.1105C177.763 57.0006 180.64 53.4001 185.258 53.4001C191 53.4001 193.711 58.2458 193.711 65.2384V95.0613H207.935V63.9871C207.935 62.6315 208.126 60.9692 208.524 59.767C209.665 56.24 212.781 53.4001 217.087 53.4001C222.89 53.4001 225.699 58.1415 225.699 66.3854V95.0613H239.911V64.2141C239.911 48.0084 231.667 41.5801 222.307 41.5801C218.191 41.5801 214.916 42.5922 211.971 44.4078C209.481 45.9351 207.297 48.0881 205.341 50.9036H205.126C202.875 45.2727 197.588 41.5801 190.681 41.5801C181.823 41.5801 177.8 46.0517 175.432 49.8301H175.217V42.7455" fill="#0071CE"/>
<path d="M436.642 40.3977C439.439 40.3977 441.794 38.9378 442.101 37.0609L444.874 5.65543C444.874 2.54556 441.212 0 436.642 0C432.048 0 428.41 2.54556 428.41 5.65544L431.207 37.0609C431.502 38.9378 433.845 40.3977 436.642 40.3977Z" fill="#FFC220"/>
<path d="M419.63 50.2249C421.016 47.7714 420.936 45.0479 419.439 43.8334L393.554 25.7324C390.862 24.1621 386.831 26.0329 384.525 29.9954C382.225 33.9517 382.691 38.3927 385.329 39.9323L413.986 53.2182C415.82 53.9052 418.219 52.6294 419.63 50.2004" fill="#FFC220"/>
<path d="M453.648 50.199C455.114 52.628 457.512 53.9038 459.298 53.2536L487.955 39.9309C490.617 38.3606 491.016 33.9626 488.765 30.0062C486.464 26.0438 482.41 24.1852 479.723 25.7248L453.832 43.8075C452.397 45.0404 452.293 47.7761 453.679 50.2235" fill="#FFC220"/>
<path d="M436.642 79.627C439.439 79.627 441.794 81.0868 442.101 82.9638L444.874 114.369C444.874 117.479 441.212 120 436.642 120C432.048 120 428.41 117.479 428.41 114.369L431.207 82.9638C431.502 81.0868 433.845 79.627 436.642 79.627Z" fill="#FFC220"/>
<path d="M453.648 69.8277C455.114 67.3925 457.512 66.0921 459.298 66.7975L487.955 80.0958C490.617 81.6354 491.016 86.0702 488.765 90.0326C486.464 93.9644 482.41 95.8353 479.723 94.2957L453.832 76.1885C452.397 74.9678 452.293 72.2444 453.679 69.8277" fill="#FFC220"/>
<path d="M419.63 69.8006C421.016 72.248 420.936 74.9653 419.439 76.1921L393.554 94.2686C390.862 95.8388 386.831 93.9619 384.525 90.0301C382.225 86.0737 382.691 81.6328 385.329 80.0932L413.986 66.795C415.82 66.0957 418.219 67.3838 419.63 69.8006Z" fill="#FFC220"/>
<path d="M496.342 91.5395H496.698C497.182 91.5395 497.379 91.6929 497.434 92.0793C497.538 92.5087 497.593 92.7969 497.697 92.9196H498.618C498.538 92.8276 498.434 92.5945 498.378 92.0548C498.274 91.5886 498.035 91.3248 497.697 91.2328V91.1469C498.164 91.0427 498.434 90.7298 498.434 90.3434C498.434 89.9938 498.274 89.7423 498.115 89.5828C497.808 89.4356 497.514 89.319 496.863 89.319C496.287 89.319 495.863 89.3681 495.526 89.4479V92.9196H496.342V91.5395ZM496.367 89.957L496.784 89.9018C497.274 89.9018 497.538 90.1287 497.538 90.4477C497.538 90.8034 497.182 90.9691 496.729 90.9691H496.367V89.957ZM496.888 87.6016C494.876 87.6016 493.281 89.1718 493.281 91.0979C493.281 93.073 494.876 94.6432 496.888 94.6432C498.924 94.6432 500.47 93.073 500.47 91.0979C500.47 89.1718 498.924 87.6016 496.888 87.6016ZM496.888 88.307C498.434 88.307 499.581 89.5583 499.581 91.0979C499.581 92.6497 498.434 93.9379 496.888 93.9133C495.342 93.9133 494.17 92.6497 494.17 91.0979C494.17 89.5583 495.342 88.307 496.863 88.307" fill="#FFC220"/>
</svg>

<svg xmlns="http://www.w3.org/2000/svg" width="501" height="120" fill="none"><path fill="#0071CE" d="M290.273 63.858c0-11.85-5.073-22.32-22.229-22.32-8.802 0-15.795 2.508-19.586 4.704l2.779 9.507c3.49-2.19 9.06-3.993 14.316-3.993 8.686-.012 10.109 4.901 10.109 8.06v.76c-18.96-.03-30.945 6.521-30.945 19.862 0 8.152 6.085 15.795 16.721 15.795 6.489 0 11.973-2.62 15.248-6.754h.319s2.16 9.036 14.102 5.582c-.607-3.784-.834-7.771-.834-12.617V63.858Zm-14.144 12.513c0 .957-.08 1.95-.362 2.803-1.093 3.65-4.858 6.705-9.545 6.705-3.956 0-7.06-2.239-7.06-6.931 0-7.177 7.925-9.152 16.967-9.103M0 25.413S12.384 76.08 14.353 84.286c2.319 9.593 6.471 13.139 18.457 10.777l7.741-31.418c1.957-7.783 3.288-13.365 4.551-21.296h.215c.877 8.01 2.14 13.513 3.742 21.321 0 0 3.159 14.274 4.796 21.75 1.595 7.478 6.085 12.195 17.844 9.643l18.426-69.65H75.25l-6.324 30.13c-1.674 8.728-3.196 15.604-4.38 23.603h-.214c-1.067-7.913-2.423-14.507-4.165-23.057l-6.55-30.676h-15.52l-6.992 29.89c-1.994 9.128-3.858 16.445-5.03 24.192h-.202c-1.209-7.268-2.847-16.524-4.582-25.308 0 0-4.153-21.401-5.619-28.774m115.906 38.445c0-11.85-5.085-22.32-22.241-22.32-8.778 0-15.783 2.508-19.573 4.704l2.778 9.507c3.478-2.19 9.042-3.993 14.317-3.993 8.685-.012 10.108 4.901 10.108 8.06v.76c-18.96-.03-30.957 6.521-30.957 19.862 0 8.152 6.11 15.795 16.696 15.795 6.551 0 11.986-2.62 15.261-6.754h.331s2.172 9.036 14.102 5.582c-.613-3.784-.822-7.771-.822-12.617V63.858Zm-14.157 12.513c0 .957-.079 1.95-.349 2.803-1.105 3.65-4.871 6.705-9.569 6.705-3.932 0-7.048-2.239-7.048-6.931 0-7.177 7.925-9.152 16.966-9.103m21.876-44.432V95.04h14.157V25.414h-14.157Zm194.426 0v51.371c0 7.091 1.331 12.035 4.195 15.065 2.515 2.656 6.631 4.386 11.532 4.386 4.208 0 8.323-.81 10.268-1.515l-.172-11.06a22.68 22.68 0 0 1-5.398.626c-4.833 0-6.428-3.06-6.428-9.428V55.193h12.329V41.889H347.72V25.413m-50.589 17.332v52.316h14.635V68.27c0-1.442.092-2.687.319-3.84 1.092-5.65 5.379-9.226 11.556-9.226 1.724 0 2.895.19 4.196.393V41.881c-1.092-.197-1.834-.3-3.177-.3-5.478 0-11.686 3.477-14.305 11.052h-.362v-9.888m-148.319 0v52.316h14.261V64.355c0-1.441.159-2.913.668-4.245 1.16-3.11 4.037-6.71 8.655-6.71 5.742 0 8.453 4.846 8.453 11.838v29.823h14.224V63.987c0-1.355.191-3.018.589-4.22 1.141-3.527 4.257-6.367 8.563-6.367 5.803 0 8.612 4.742 8.612 12.985v28.676h14.212V64.214c0-16.206-8.244-22.634-17.604-22.634-4.116 0-7.391 1.012-10.336 2.828-2.49 1.527-4.674 3.68-6.63 6.496h-.215c-2.251-5.631-7.538-9.324-14.445-9.324-8.858 0-12.881 4.472-15.249 8.25h-.215v-7.084"/><path fill="#FFC220" d="M436.642 40.398c2.797 0 5.152-1.46 5.459-3.337l2.773-31.406c0-3.11-3.662-5.655-8.232-5.655-4.594 0-8.232 2.546-8.232 5.655l2.797 31.406c.295 1.877 2.638 3.337 5.435 3.337Zm-17.012 9.827c1.386-2.454 1.306-5.177-.191-6.392l-25.885-18.1c-2.692-1.57-6.723.3-9.029 4.262-2.3 3.957-1.834 8.398.804 9.937l28.657 13.286c1.834.687 4.233-.589 5.644-3.018m34.018-.001c1.466 2.429 3.864 3.705 5.65 3.055l28.657-13.323c2.662-1.57 3.061-5.968.81-9.925-2.301-3.962-6.355-5.82-9.042-4.281l-25.891 18.082c-1.435 1.233-1.539 3.97-.153 6.416m-17.037 29.404c2.797 0 5.152 1.46 5.459 3.337l2.773 31.405c0 3.11-3.662 5.631-8.232 5.631-4.594 0-8.232-2.521-8.232-5.631l2.797-31.405c.295-1.877 2.638-3.337 5.435-3.337Zm17.006-9.799c1.466-2.436 3.864-3.736 5.65-3.03l28.657 13.298c2.662 1.54 3.061 5.974.81 9.937-2.301 3.931-6.355 5.802-9.042 4.263l-25.891-18.108c-1.435-1.22-1.539-3.944-.153-6.36M419.63 69.8c1.386 2.448 1.306 5.165-.191 6.392L393.554 94.27c-2.692 1.57-6.723-.307-9.029-4.239-2.3-3.956-1.834-8.397.804-9.937l28.657-13.298c1.834-.7 4.233.589 5.644 3.006Zm76.712 21.74h.356c.484 0 .681.153.736.54.104.429.159.717.263.84h.921c-.08-.092-.184-.326-.24-.865-.104-.466-.343-.73-.681-.822v-.086c.467-.104.737-.417.737-.804 0-.35-.16-.6-.319-.76-.307-.147-.601-.264-1.252-.264-.576 0-1 .05-1.337.129v3.472h.816v-1.38Zm.025-1.583.417-.055c.49 0 .754.227.754.546 0 .355-.356.521-.809.521h-.362v-1.012Zm.521-2.355c-2.012 0-3.607 1.57-3.607 3.496 0 1.975 1.595 3.545 3.607 3.545 2.036 0 3.582-1.57 3.582-3.545 0-1.926-1.546-3.496-3.582-3.496Zm0 .705c1.546 0 2.693 1.251 2.693 2.79 0 1.553-1.147 2.84-2.693 2.816-1.546 0-2.718-1.263-2.718-2.815 0-1.54 1.172-2.791 2.693-2.791"/></svg>
